X:1305
T:G Grace Scale Navigation Complete
O:Kevin Fraser
Z:Kevin Fraser
Q:1/4=90
K:HP
M:4/4
L:1/4
R:March
V:gstem=up stem=down
%%MIDI gracedivider 4
%%MIDI gchord
%%MIDI beatstring
%%barsperstaff 4
[| {g}G  A  {g}G  B  |  {g}G  c  {g}G  d  |  {g}G  e  {g}G  f  |  {g}G  g   {g}G  a  |  a  G  {a}g   G  |  {g}f   G  {g}e  G |  {g}d  G  {g}c  G  |  {g}B  G   {g}A  G  | 
w: G  A  G  B  |  G  c  G  d  |  G  e  G  f  |  G  g   G  a  |  a  G  g   G  |  f   G  e  G |  d  G  c  G  |  B  G   A  G  |
w: hem en hem o  |  hem o  hem a  |  hem e  hem ve |  hem di  hem I  |  I  em di  em |  che  em he  em|  ha  em ho  em | ho  em  hen em | 
|| {g}A  G  {g}A  B  |  {g}A  c  {g}A  d  |  {g}A  e  {g}A  f  |  {g}A  g   {g}A  a  |  a  A  {a}g   A  |  {g}f   A  {g}e  A |  {g}d  A  {g}c  A  |  {g}B  A   {g}G  A  | 
w: A  G  A  B  |  A  c  A  d  |  A  e  A  f  |  A  g   A  a  |  a  A  g   A  |  f   A  e  A |  d  A  c  A  |  B  A   G  A  |
w: hen em hen o |  hen o  hen a  |  hen e  hen ve |  hen di  hen I  |  I  en vi  en |  che  en he  en|  ha  en ho  en |  ho en  hem en | 
|| {g}B  G  {g}B  A  |  {g}B  c  {g}B  d  |  {g}B  e  {g}B  f  |  {g}B  g   {g}B  a  |  a  B  {a}g   B  |  {g}f   B  {g}e  B |  {g}d  B  {g}c  B  | {g}A  B   {g}G  B  | 
w: B  G  B  A  |  B  c  B  d  |  B  e  B  f  |  B  g   B  a  |  a  B  g   B  |  f   B  e  B |  d  B  c  B  |  A  B   G  B  |
w: ho em ho en |  ho o  ho a  |  ho e  ho ve |  ho di  ho I  |  I  o vi  o |  che  o he  o|  ha  o ho  o |  hen o  hem o | 
|| {g}c  G  {g}c  A  |  {g}c  B  {g}c  d  |  {g}c  e  {g}c  f  |  {g}c  g   {g}c  a  |  a  c  {a}g   c  |  {g}f   c  {g}e  c |  {g}d  c  {g}B  c  |  {g}A  c   {g}G  c  | 
w: c  G  c  A  |  c  B  c  d  |  c  e  c  f  |  c  g   c  a  |  a  c  g   c  |  f   c  e  c |  d  c  B  c  |  A  c   G  c 
w: ho em ho en |  ho o  ho a  |  ho e  ho ve |  ho di  ho I  |  I  o vi  o |  che  o he  o|  ha  o ho  o |  hen o  hem o | 
|| {g}d  G  {g}d  A  |  {g}d  B  {g}d  c  |  {g}d  e  {g}d  f  |  {g}d  g   {g}d  a  |  a  d  {a}g   d  |  {g}f   d  {g}e  d |    {g}c  d   {g}B  d | {g}A d  {g}G  d  | 
w: d  G  d  A  |  d  B  d  c  |  d  e  d  f  |  d  g   d  a  |  a  d  g   d  |  f   d  e  d |    c  d   B  d | A d  G  d  
w: ha em ha en  |  ha o  ha o  |  ha e  ha ve |  ha di  ha I  |  I  a vi  a |  che  a he  a|   ho  a   ho  a | hen a hem a :| 
|| {g}e  G  {g}e  A  |  {g}e  B  {g}e  c  |  {g}e  d  {g}e  f  |  {g}e  g   {g}e  a  |  a  e  {a}g   e  |  {g}f   e  {g}d  e |  {g}c  e  {g}B  e  |  {g}A  e   {g}G  e  | 
w: e  G  e  A  |  e  B  e  c  |  e  d  e  f  |  e  g   e  a  |  a  e  g   e  |  f   e  d  e |  c  e  B  e  |  A  e   G  e  | 
w: he em  he  en |  he  o  he  o  |  he  a  he  ve |  he  di  he  I  |  I  e  vi  e  |  che  e  ha  e |  ho  e  ho  e  |  hen e   hem e :| 
|| {g}f  G  {g}f  A  |  {g}f  B  {g}f  c  |  {g}f  d  {g}f  e  |  {g}f  g   {g}f  a  |  a  f  {a}g   f  |  {g}e   f  {g}d  f |  {g}c  f  {g}B  f  |  {g}A  f   {g}G  f  | 
w: f  G  f  A  |  f  B  f  c  |  f  d  f  e  |  f  g   f  a  |  a  f  g   f  |  e   f  d  f |  c  f  B  f  |  A  f   G  f  | 
w: che em che en |  che o  che o  |  che a  che e  |  che di  che I  |  I  ve vi  ve |  he   ve ha  ve|  ho  ve ho  ve |  hen ve  hem vi :| 
|| {a}g  G  {a}g  A  |  {a}g  B  {a}g  c  |  {a}g  d  {a}g  e  |  {a}g  f   {a}g  a  |  a  g  {a}f   g  |  {g}e   g  {g}d  g |  {g}c  g  {g}B  g  |  {g}A  g   {g}G  g  | 
w: g  G  g  A  |  g  B  g  c  |  g  d  g  e  |  g  f   g  a  |  a  g  f   g  |  e   g  d  g |  c  g  B  g  |  A  g   G  g  | 
w: vi em vi en |  vi o  vi o  |  vi a  vi e  |  vi vi  vi I  |  I  di vi  di |  he   di ha  di|  ho  di ho  di |  hen di  hem di :| 



